outputs/icons/editor/strikethrough_round.svg

<svg xmlns="http://www.w3.org/2000/svg" width="1200" height="1200" fill="none"><g clip-path="url(#a)"><path fill="#000" d="M600 950c55 0 100-45 100-100v-50H500v50c0 55 45 100 100 100M250 275c0 41.5 33.5 75 75 75h175v150h200V350h175c41.5 0 75-33.5 75-75s-33.5-75-75-75H325c-41.5 0-75 33.5-75 75m-50 425h800c27.5 0 50-22.5 50-50s-22.5-50-50-50H200c-27.5 0-50 22.5-50 50s22.5 50 50 50"/></g><defs><clipPath id="a"><path fill="#fff" d="M0 0h1200v1200H0z"/></clipPath></defs></svg>

<svg width="1200" height="1200" viewBox="0 0 1200 1200" fill="none" xmlns="http://www.w3.org/2000/svg"><g clip-path="url(#clip0_238_250)"><path d="M600 950C655 950 700 905 700 850V800H500V850C500 905 545 950 600 950ZM250 275C250 316.5 283.5 350 325 350H500V500H700V350H875C916.5 350 950 316.5 950 275C950 233.5 916.5 200 875 200H325C283.5 200 250 233.5 250 275ZM200 700H1000C1027.5 700 1050 677.5 1050 650C1050 622.5 1027.5 600 1000 600H200C172.5 600 150 622.5 150 650C150 677.5 172.5 700 200 700Z" fill="black"/></g><defs><clipPath id="clip0_238_250"><path width="24" fill="white" d="M0 0H1200V1200H0V0z"/></clipPath></defs></svg>
